X:45
T:Ewe With the Crooked Horn (h)
B:NFID.079b
045ewe_ch
S:JD
L:1/8
M:C
R:hornpipe % A-B-A, last measure ending on BGG2
Q:240
K:G
(3DEF|:G2DG B,GDE|=F2CF _BFA^F|G2DG B,GDG|(3Bcd (3cBA B<GGD|
G2DG B,GDE|(3=FGF A,F CFA,^F|G2DG B,GDG|(3Bcd (3cBA B<GGf||
gdBd gbag|=fcAc fagf|gdBd gbag|(3=fed cA B<GGf|
gdBd gbag|=fcAc fagf|g2gg gbag|(3fed cA BGAF||

%%%

